X: 42587
T: Where Is The Cat?
R: slide
M: 12/8
K: Dmajor
|:EEE A2E FEF A3|EEE A2c B2A F3|
EEE A2E FEF AB|cec d2c B2A F2E:|
|:cBc e2c BAF d3|cBc e2c B2A F2E|
cBc e2c BAF d2e|~f3 e2c B2A F2E:|

